public/images/icons/tv.svg

<svg width="18" height="18" viewBox="0 0 18 18" fill="none" xmlns="http://www.w3.org/2000/svg">
<path d="M1.50001 3C1.50001 2.586 1.84126 2.25 2.24401 2.25H15.756C16.167 2.25 16.5 2.58375 16.5 3V13.5C16.5 13.914 16.1588 14.25 15.756 14.25H2.24401C2.14586 14.2498 2.04871 14.2302 1.95814 14.1924C1.86757 14.1546 1.78537 14.0992 1.71624 14.0295C1.64711 13.9598 1.59243 13.8772 1.55532 13.7863C1.51822 13.6955 1.49942 13.5982 1.50001 13.5V3ZM3.00001 3.75V12.75H15V3.75H3.00001ZM3.75001 15H14.25V16.5H3.75001V15Z" fill="#B1B1B1"/>
</svg>

<svg width="18" height="18" fill="none" xmlns="http://www.w3.org/2000/svg"><path d="M1.5 3c0-.414.341-.75.744-.75h13.512c.411 0 .744.334.744.75v10.5c0 .414-.341.75-.744.75H2.244a.746.746 0 01-.744-.75V3zm1.5.75v9h12v-9H3zM3.75 15h10.5v1.5H3.75V15z" fill="#B1B1B1"/></svg>
